X:1
T:Rimsky-Korsakov Harmonic Exercises, Ninth chord
T:Rimsky-Korsakov Harmonic Exercises, Ninth chord
T:"Practical Manual of Harmony" (1885)
T:Realizations by S. Shchetnikov
C:Realizations by S. Shchetnikov
%%score { ( 1 2 ) | ( 3 4 ) }
L:1/8
Q:1/2=120
M:3/1
K:C
V:1 treble nm="Piano" snm="Pno."
V:2 treble 
V:3 bass 
V:4 bass 
V:1
"""^Examples by Rimsky-Korsakov:""_C:""^Dominant ninth chord" A8-"" A8"" G8 |] %1
"""_a:" F8-"" F8"" E8 |]"""_C:" A8-"" A8"" G8 |]"" A8-"" A8"" G8 |] %4
[M:5/1]"""_C:""^Passing V⁹:" A8-"" A8-"" A8"" G8"" G8 |] %5
[M:4/1]"""^Additional examples:" A8"" G8"" F8"" E8 |][M:3/1]"""_C:" F8-"" F8"" E8 |] %7
"" c8"" B8"" c8 |]"" d8-"" d8"" e8 |]"""^3rd inversion of V⁹:""_C:" A8-"""_10" A8"" G8 |] %10
"" E8"""_10" A8"" G8 |]"""_c:" _E8"""_10" _A8"" G8 |] %12
[K:G][M:4/4]"""^Exercise: own composition.\nRealization:\n"[Q:1/2=60]"_G:" G4"" A4 |"" B4 d4 | %14
"""" e8 |"" d4 B4 |"""" c8 |"" B4"" c4 |"" B4"" A4 |"" G8 |] %20
V:2
 F8- F8 E8 |] D8- D8 C8 |] F8- F8 E8 |] F8- F8 E8 |][M:5/1] F8- F8- F8- F8 E8 |] %5
[M:4/1] F8 E8 D8 C8 |][M:3/1] C8 B,8 C8 |] A8- A8 G8 |] (c8 B8) c8 |] C8 B,8 C8 |] C8 B,8 C8 |] %11
 C8 =B,8 C8 |][K:G][M:4/4] D8 | D4 G4 | G4 F4 | G8 | G4 F4 | G8 | G4 F4 | D8 |] %20
V:3
 C8 B,8 C8 |] A,8 ^G,8 A,8 |] D8 B,8 C8 |] C8 B,8 C8 |][M:5/1] C8 B,8 C8 D8 C8 |] %5
[M:4/1] B,8 C8 D8 G,8 |][M:3/1] A,8- A,8 G,8 |] F8- F8 E8 |] A8- A8 G8 |] F,8 G,8 G,8 |] %10
 G,8 G,8 G,8 |] G,8 G,8 G,8 |][K:G][M:4/4] B,4 A,4 | G,4 B,4 | C8 | B,4 D4 | E8 | D4 E4 | D4 C4 | %19
 B,8 |] %20
V:4
 F,8 G,8 C,8 |] D,8 E,8 A,,8 |] D,8 G,,8 C,8 |] D,8 G,,8 C,8 |][M:5/1] F,,8 G,,8 A,,8 B,,8 C,8 |] %5
[M:4/1] G,,8 A,,8 B,,8 C,8 |][M:3/1] F,,8 G,,8 C,8 |] F,8 G,8 C,8 |] (F,8 G,8) C,8 |] %9
 F,8- F,8 E,8 |] E,8 F,8 E,8 |] C,8 F,8 _E,8 |][K:G][M:4/4] G,4 F,4 | G,4 G,,4 | C,4 D,4 | G,8 | %16
 C,4 D,4 | G,4 C,4 | D,4 D,4 | G,8 |] %20

